nova/resources/svg/fluent/error-circle.svg

<svg viewBox="0 0 24 24" fill="none" xmlns="http://www.w3.org/2000/svg">
<path d="M12 2C17.523 2 22 6.478 22 12C22 17.522 17.523 22 12 22C6.477 22 2 17.522 2 12C2 6.478 6.477 2 12 2ZM12 3.667C7.405 3.667 3.667 7.405 3.667 12C3.667 16.595 7.405 20.333 12 20.333C16.595 20.333 20.333 16.595 20.333 12C20.333 7.405 16.595 3.667 12 3.667ZM11.9987 14.5022C12.5502 14.5022 12.9973 14.9494 12.9973 15.5009C12.9973 16.0524 12.5502 16.4996 11.9987 16.4996C11.4471 16.4996 11 16.0524 11 15.5009C11 14.9494 11.4471 14.5022 11.9987 14.5022ZM11.9945 7C12.3742 6.9997 12.6882 7.2816 12.7381 7.64764L12.7451 7.7494L12.7487 12.251C12.749 12.6652 12.4135 13.0013 11.9993 13.0016C11.6196 13.0019 11.3055 12.72 11.2556 12.354L11.2487 12.2522L11.2451 7.7506C11.2447 7.33639 11.5802 7.00033 11.9945 7Z" fill="currentColor"/>
</svg>

<svg viewBox="0 0 24 24" fill="none" xmlns="http://www.w3.org/2000/svg"><path d="M12 2c5.523 0 10 4.478 10 10s-4.477 10-10 10S2 17.522 2 12 6.477 2 12 2zm0 1.667c-4.595 0-8.333 3.738-8.333 8.333 0 4.595 3.738 8.333 8.333 8.333 4.595 0 8.333-3.738 8.333-8.333 0-4.595-3.738-8.333-8.333-8.333zm-.001 10.835a.999.999 0 110 1.998.999.999 0 010-1.998zM11.994 7a.75.75 0 01.744.648l.007.101.004 4.502a.75.75 0 01-1.493.103l-.007-.102-.004-4.501a.75.75 0 01.75-.751z" fill="currentColor"/></svg>
